X:312
T: O KLOSTERLEBEN DU EINSAMKEIT
N: E0921
O: Europa, Mitteleuropa, Deutschland, Frankfurt a.M.; Magdeburg;
R: Ehestands - Lied, Nonnen - Klage
M: 6/8
L: 1/16
K: F
C2 | F4A2A2G2F2 | G4B2B2A2
G2 | F2A2c2c2B2A2 | A6G4
A2 | G2G2A2B2A2G2 | A4B2c4
A2 | G2G2A2B2A2G2 | A4B2c4
c2 | c2A2c2f2e2d2 | c4d2c4
B2 | A3BA2G2F2G2 | F6z4

